packages/icons/raw/svg/icon-instagram.svg

<svg xmlns="http://www.w3.org/2000/svg" fill="none" viewBox="0 0 20 20">
  <path fill="#fff" d="M9.99605 1.8023c2.67065 0 2.98415.01191 4.03975.05955.9762.04367 1.504.20643 1.8571.34537.4682.18262.8016.39699 1.1508.74633.3492.34935.5674.68281.7461 1.15125.1348.35332.3016.88131.3451 1.85788.0477 1.05598.0596 1.36959.0596 4.04132 0 2.6717-.0119 2.9853-.0596 4.0413-.0435.9765-.2063 1.5045-.3451 1.8578-.1827.4685-.3969.8019-.7461 1.1513-.3492.3493-.6826.5677-1.1508.7463-.3531.135-.8809.3017-1.8571.3454-1.0556.0476-1.3691.0595-4.03975.0595-2.67063 0-2.98413-.0119-4.03968-.0595-.9762-.0437-1.50398-.2064-1.85715-.3454-.46825-.1826-.80159-.397-1.1508-.7463-.34921-.3494-.56746-.6828-.74603-1.1513-.13493-.3533-.30159-.8813-.34524-1.8578-.04762-1.056-.05953-1.3696-.05953-4.0413 0-2.67173.01191-2.98534.05953-4.04132.04365-.97657.20634-1.50456.34524-1.85788.18254-.46844.39682-.8019.74603-1.15125.34921-.34934.68255-.56768 1.1508-.74633.35317-.13497.88095-.3017 1.85715-.34537 1.05555-.05161 1.37301-.05955 4.03968-.05955zm0-1.8023C7.28176 0 6.94049.0119 5.87303.05955 4.80954.10719 4.08335.27789 3.44842.52402c-.65873.25407-1.21428.59944-1.76984 1.15522-.55556.55577-.89683 1.11552-1.15477 1.77054-.24603.63517-.41667 1.36165-.46429 2.42954C.0119 6.94323 0 7.28464 0 10c0 2.7154.0119 3.0568.05952 4.1247.04762 1.0639.21826 1.7903.4643 2.4295.25396.659.5992 1.2148 1.15476 1.7705.55556.5558 1.11508.8972 1.76984 1.1553.63493.2461 1.36112.4168 2.42858.4644 1.06747.0477 1.40476.0596 4.123.0596 2.7183 0 3.0555-.0119 4.123-.0596 1.0635-.0476 1.7897-.2183 2.4287-.4644.6587-.2541 1.2142-.5995 1.7698-1.1553.5555-.5557.8968-1.1155 1.1547-1.7705.2461-.6352.4167-1.3617.4643-2.4295C19.9881 13.0568 20 12.7193 20 10c0-2.71933-.0119-3.05677-.0595-4.12465-.0476-1.06392-.2182-1.7904-.4643-2.42954-.2539-.65899-.5992-1.21477-1.1547-1.77054-.5556-.55578-1.1151-.89718-1.7698-1.15522-.635-.24613-1.3612-.41683-2.4287-.46447C13.0516.0119 12.7104 0 9.99605 0z"/>
  <path fill="#fff" d="M9.99625 4.86697c-2.8333 0-5.13489 2.29854-5.13489 5.13693 0 2.8385 2.29763 5.137 5.13489 5.137 2.83735 0 5.13495-2.2985 5.13495-5.137 0-2.83839-2.2976-5.13693-5.13495-5.13693zm0 8.46763c-1.84123 0-3.3333-1.4926-3.3333-3.33464 0-1.842 1.49207-3.33465 3.3333-3.33465 1.84125 0 3.33335 1.49265 3.33335 3.33465 0 1.84204-1.4921 3.33464-3.33335 3.33464z"/>
  <path fill="#fff" d="M15.3334 5.85954c.6622 0 1.1989-.53676 1.1989-1.19889s-.5367-1.19889-1.1989-1.19889c-.6621 0-1.1989.53676-1.1989 1.19889s.5368 1.19889 1.1989 1.19889z"/>
</svg>

<svg width="21" height="21" viewBox="0 0 21 21" fill="none" xmlns="http://www.w3.org/2000/svg">
<path d="M10 1.8023C12.6717 1.8023 12.9853 1.81421 14.0413 1.86185C15.0179 1.90552 15.5459 2.06828 15.8992 2.20722C16.3676 2.38984 16.7011 2.60421 17.0504 2.95355C17.3998 3.3029 17.6181 3.63636 17.7968 4.1048C17.9317 4.45812 18.0985 4.98611 18.1421 5.96268C18.1898 7.01866 18.2017 7.33227 18.2017 10.004C18.2017 12.6757 18.1898 12.9893 18.1421 14.0453C18.0985 15.0218 17.9357 15.5498 17.7968 15.9031C17.6141 16.3716 17.3998 16.705 17.0504 17.0544C16.7011 17.4037 16.3676 17.6221 15.8992 17.8007C15.5459 17.9357 15.0179 18.1024 14.0413 18.1461C12.9853 18.1937 12.6717 18.2056 10 18.2056C7.32831 18.2056 7.01469 18.1937 5.95872 18.1461C4.98214 18.1024 4.45415 17.9397 4.10084 17.8007C3.6324 17.6181 3.29893 17.4037 2.94958 17.0544C2.60024 16.705 2.3819 16.3716 2.20326 15.9031C2.06828 15.5498 1.90155 15.0218 1.85788 14.0453C1.81024 12.9893 1.79833 12.6757 1.79833 10.004C1.79833 7.33227 1.81024 7.01866 1.85788 5.96268C1.90155 4.98611 2.06431 4.45812 2.20326 4.1048C2.38587 3.63636 2.60024 3.3029 2.94958 2.95355C3.29893 2.60421 3.6324 2.38587 4.10084 2.20722C4.45415 2.07225 4.98214 1.90552 5.95872 1.86185C7.01469 1.81024 7.33228 1.8023 10 1.8023ZM10 0C7.28464 0 6.94323 0.0119095 5.87535 0.0595474C4.81144 0.107185 4.08496 0.277888 3.44978 0.524017C2.79079 0.778086 2.23502 1.12346 1.67924 1.67924C1.12346 2.23501 0.782057 2.79476 0.524018 3.44978C0.277888 4.08495 0.107185 4.81143 0.0595475 5.87932C0.0119095 6.94323 0 7.28464 0 10C0 12.7154 0.0119095 13.0568 0.0595475 14.1247C0.107185 15.1886 0.277888 15.915 0.524018 16.5542C0.778087 17.2132 1.12346 17.769 1.67924 18.3247C2.23502 18.8805 2.79476 19.2219 3.44978 19.48C4.08496 19.7261 4.81144 19.8968 5.87932 19.9444C6.94721 19.9921 7.28464 20.004 10.004 20.004C12.7233 20.004 13.0607 19.9921 14.1286 19.9444C15.1925 19.8968 15.919 19.7261 16.5582 19.48C17.2172 19.2259 17.7729 18.8805 18.3287 18.3247C18.8845 17.769 19.2259 17.2092 19.4839 16.5542C19.7301 15.919 19.9008 15.1925 19.9484 14.1247C19.996 13.0568 20.0079 12.7193 20.0079 10C20.0079 7.28067 19.996 6.94323 19.9484 5.87535C19.9008 4.81143 19.7301 4.08495 19.4839 3.44581C19.2299 2.78682 18.8845 2.23104 18.3287 1.67527C17.7729 1.11949 17.2132 0.778087 16.5582 0.520048C15.923 0.273918 15.1965 0.103216 14.1286 0.0555776C13.0568 0.0119095 12.7154 0 10 0Z" fill="#FFFFFF"/>
<path d="M10.0002 4.86697C7.16578 4.86697 4.86328 7.16551 4.86328 10.0039C4.86328 12.8424 7.16181 15.1409 10.0002 15.1409C12.8387 15.1409 15.1372 12.8424 15.1372 10.0039C15.1372 7.16551 12.8387 4.86697 10.0002 4.86697ZM10.0002 13.3346C8.15824 13.3346 6.66558 11.842 6.66558 9.99996C6.66558 8.15796 8.15824 6.66531 10.0002 6.66531C11.8422 6.66531 13.3349 8.15796 13.3349 9.99996C13.3349 11.842 11.8422 13.3346 10.0002 13.3346Z" fill="#FFFFFF"/>
<path d="M15.339 5.85954C16.0012 5.85954 16.5379 5.32278 16.5379 4.66065C16.5379 3.99852 16.0012 3.46176 15.339 3.46176C14.6769 3.46176 14.1401 3.99852 14.1401 4.66065C14.1401 5.32278 14.6769 5.85954 15.339 5.85954Z" fill="#FFFFFF"/>
</svg>
